X: 30982
T: P&O, The
R: polka
M: 2/4
K: Eminor
B,E EF|G2 FE|FD DE|(3FED ED|
B,E EF|G2 FA|GB Ad|e2 e2:|
|:{f}ge (3fed|ed BA|Fd de|f2 ef|
ge (3fed|ed BA|GB Ad|e2 e2:|

